X:1
T:Llanthony, 65.65
T:Llanthony, 65.65
T:Abbey Hymns
T:Public Domain Courtesy of the Cyber Hymnal™
C:Abbey Hymns
Z:Public Domain
Z:Courtesy of the Cyber Hymnal™
%%score ( 1 2 ) ( 3 4 )
L:1/8
Q:1/4=140
M:3/4
K:D
V:1 treble 
V:2 treble 
V:3 bass 
V:4 bass 
V:1
 ([FA]2 [EG]2) [DF]2 | ([DF]2 [B,E]2) [A,D]2 | [A,D]6 | [A,C]6 | (D2 [CE]2) [DF]2 | (A2 G2) [DF]2 | %6
 ([DF]6 | [CE]6) | (F2 G2) [DA]2 | [DB]2 [Ed]2 [Ec]2 | [DB]6 | [CA]6 | (G2 F2) [CE]2 | %13
 (E2 D2) [A,C]2 | [A,D]6 |] %15
V:2
 x6 | x6 | x6 | x6 | D2 x4 | E4 x2 | x6 | x6 | D4 x2 | x6 | x6 | x6 | C4 x2 | B,4 x2 | x6 |] %15
V:3
 [D,A,]4 [D,A,]2 | (A,2 G,2) [D,F,]2 | [A,,F,]6 | [A,,E,]6 | A,4 [D,A,]2 | [C,A,]4 [D,A,]2 | %6
 [A,,A,]6- | [A,,A,]6 | A,4 [F,A,]2 | [E,^G,]4 [E,G,]2 | [E,^G,]6 | [A,,A,]6 | (E,2 A,2) [A,,A,]2 | %13
 ^G,4 [A,,=G,]2 | [D,F,]6 |] %15
V:4
 x6 | D,4 x2 | x6 | x6 | (F,2 E,2) x2 | x6 | x6 | x6 | (D,2 E,2) x2 | x6 | x6 | x6 | A,,4 x2 | %13
 (B,,2 E,2) x2 | x6 |] %15

